symbols/web/emergency_recording/materialsymbolssharp/emergency_recording_wght500grad200_40px.svg

<svg xmlns="http://www.w3.org/2000/svg" height="40" width="40"><path d="M14.583 28.292h3.584v-5.209l4.75 2.75 1.791-3.125L19.958 20l4.75-2.75-1.791-3.083-4.75 2.75v-5.209h-3.584v5.209l-4.75-2.709-1.791 3.084L12.792 20l-4.75 2.708 1.833 3.125 4.708-2.75Zm-12.5 5.958V5.708h28.542v11.834l7.292-7.292v19.5l-7.292-7.292V34.25Zm3.75-3.708h21.084V9.458H5.833Zm0-21.084v21.084Z"/></svg>

<svg xmlns="http://www.w3.org/2000/svg" height="40" width="40"><path d="M14.583 28.292H18.167V23.083L22.917 25.833L24.708 22.708L19.958 20L24.708 17.25L22.917 14.167L18.167 16.917V11.708H14.583V16.917L9.833 14.208L8.042 17.292L12.792 20L8.042 22.708L9.875 25.833L14.583 23.083ZM2.083 34.25V5.708H30.625V17.542L37.917 10.25V29.75L30.625 22.458V34.25ZM5.833 30.542H26.917V9.458H5.833ZM5.833 9.458V30.542Z"/></svg>
